X:152
T:Portsmouth Harbour
M:C
L:1/8
B:Thompson's Compleat Collection of 200 Favourite Country Dances, vol. 3 (London, 1773)
Z:Transcribed and edited by Flynn Titford-Mock, 2007
Z:abc's:AK/Fiddler's Companion
K:G
G(B B)c/d/ ecec | G(B B)c/d/ cAcA | G(B B)c/e/ ecec | BGAF G2 [G,2G2] :|
|: B(d d)e/f/ gdgd | B(d d)c/B/ cAcA | B(d d)e/f/ gdgd | BGAF G2 [G,2G2] :|

